plugins/Tagger_Abner/src/gate/resources/img/DNA.svg

<?xml version="1.0" encoding="UTF-8" standalone="no"?>
<!-- Created with Inkscape (http://www.inkscape.org/) -->

<svg
   xmlns:dc="http://purl.org/dc/elements/1.1/"
   xmlns:cc="http://creativecommons.org/ns#"
   xmlns:rdf="http://www.w3.org/1999/02/22-rdf-syntax-ns#"
   xmlns:svg="http://www.w3.org/2000/svg"
   xmlns="http://www.w3.org/2000/svg"
   xmlns:sodipodi="http://sodipodi.sourceforge.net/DTD/sodipodi-0.dtd"
   xmlns:inkscape="http://www.inkscape.org/namespaces/inkscape"
   version="1.0"
   width="70"
   height="77.580002"
   viewBox="0 0 538.092 261.675"
   id="Layer_1"
   xml:space="preserve"
   inkscape:version="0.48.0 r9654"
   sodipodi:docname="DNA.svg"><metadata
     id="metadata11"><rdf:RDF><cc:Work
         rdf:about=""><dc:format>image/svg+xml</dc:format><dc:type
           rdf:resource="http://purl.org/dc/dcmitype/StillImage" /></cc:Work></rdf:RDF></metadata><sodipodi:namedview
     pagecolor="#ffffff"
     bordercolor="#666666"
     borderopacity="1"
     objecttolerance="10"
     gridtolerance="10"
     guidetolerance="10"
     inkscape:pageopacity="0"
     inkscape:pageshadow="2"
     inkscape:window-width="2048"
     inkscape:window-height="1075"
     id="namedview9"
     showgrid="false"
     inkscape:zoom="3.7251868"
     inkscape:cx="0.90775006"
     inkscape:cy="38.790001"
     inkscape:window-x="0"
     inkscape:window-y="24"
     inkscape:window-maximized="1"
     inkscape:current-layer="Layer_1" /><defs
     id="defs859" /><g
     id="g2988"
     transform="matrix(0.9030603,0,0,0.9030603,26.081239,12.683334)"><path
       id="path141"
       style="fill:#bf0000;stroke:#000000;stroke-width:3.32485747"
       d="m 132.46534,427.10202 c -0.77639,-23.87592 1.20571,-42.66025 2.44332,-66.46698 0.27674,-5.16568 -7.14893,-8.44805 -8.12519,-11.52286 -6.57241,-20.79341 -21.9849,6.54935 -24.24489,13.89046 -3.682081,11.93027 -5.849821,25.42869 -5.749898,37.95087 0.122998,14.89745 -8.647976,11.45744 -3.712913,26.01666"
       inkscape:connector-curvature="0" /><path
       id="path133"
       style="fill:#8f0000;stroke:#000000;stroke-width:3.32485747"
       d="m 99.980567,-165.39319 c -7.490704,31.47907 -5.336407,84.90169 56.897623,150.117138 61.5731,64.509547 219.14951,102.122179 256.42392,158.514222 17.93383,27.11984 20.93946,-6.54166 21.59286,-18.29513 0.63802,-11.4921 5.94208,-35.291146 -38.7042,-59.528349 -52.15648,-28.311327 -191.36089,-105.87345 -191.36089,-105.87345 0,0 -78.75377,-46.44672 -90.74254,-124.963571 m 294.12595,556.13671 c 17.93384,27.11984 20.93946,-6.54166 21.59287,-18.30281 0.63801,-11.49212 5.94207,-35.27578 -38.70419,-59.51299 -52.1565,-28.31132 -191.36091,-105.88113 -191.36091,-105.88113 0,0 -99.5009,-58.67509 -91.85231,-155.639274 0,0 -56.868635,75.225264 43.90063,180.821984 61.5731,64.51723 219.14951,102.1145 256.42391,158.51422 z"
       inkscape:connector-curvature="0" /><path
       id="path139"
       style="fill:#7dff00;stroke:#000000;stroke-width:3.32485747"
       d="m 244.47957,99.721905 c 0,0 139.16597,5.934385 139.5657,5.949755 7.07207,0.29979 20.65504,-3.29005 20.77804,-12.183939 0.21524,-16.457929 -32.95429,-13.290873 -43.24723,-13.729034 -18.32587,-0.814825 -36.65175,-1.62965 -54.97762,-2.429101 -5.18106,-0.222924 -68.58368,0.484282 -69.64449,-3.074812 l 7.5256,25.467131 z m 28.28058,-224.384375 139.68869,0 11.48442,0 c 0,0 3.82814,4.78901 8.13288,-8.13288 4.30474,-12.9219 1.43748,-16.75004 1.43748,-16.75004 l -169.34525,-0.2306 8.60178,25.11352 z m -12.43761,47.844064 13.3985,-13.390805 104.28223,-19.140699 c 0,0 24.87522,12.43761 15.31255,22.007962 -9.56265,9.57035 -13.87508,5.265614 -13.87508,5.265614 l -105.82733,15.896776 -13.29087,-10.638848 z m 4.80439,223.438876 151.04243,-0.51503 10.09307,10.09306 -10.47742,10.47742 -147.82156,3.35155 c 0,0 -10.52354,2.02169 -10.52354,-10.52354 0,-12.54523 7.68702,-12.88346 7.68702,-12.88346 z m -2.30611,64.62484 90.39946,-17.21125 -5.83445,18.09527 -19.13301,11.47673 -61.32713,4.28936 c 0,-0.008 -11.30762,-12.49911 -4.10487,-16.65011 z m 3.50529,-193.551695 c 10.96939,4.858202 67.7919,13.14482 54.03212,33.400141 -9.50884,14.005767 -40.16472,-6.656967 -50.73438,-11.238437 -6.00358,-2.598215 -13.04489,-4.52766 -18.53343,-7.925326 8.14825,-1.537406 10.27755,-12.406865 6.3956,-18.81016 2.85189,1.721895 5.8114,3.228552 8.84009,4.573782 z m -12.207,330.788235 c 0,0 123.73042,5.92669 124.08402,5.94976 6.28799,0.29979 18.36432,-3.29774 18.47193,-12.18394 0.19218,-16.45794 -29.30296,-13.29088 -38.45052,-13.73673 -16.2965,-0.80713 -32.58531,-1.62195 -48.88181,-2.42141 -4.61222,-0.23061 -60.9812,0.48428 -61.91902,-3.07481 l 6.6954,25.46713 z m 18.41812,58.82114 135.74524,0 11.16157,0 c 0,0 3.71283,4.78902 7.90226,-8.14056 4.18174,-12.90652 1.39136,-16.74235 1.39136,-16.74235 l -164.56392,-0.2383 8.36349,25.12121 z"
       inkscape:connector-curvature="0" /><path
       id="path135"
       style="fill:#ffbf00;stroke:#000000;stroke-width:3.32485747"
       d="m 113.93845,-124.66247 163.61073,0 c 0,0 8.13286,1.91407 8.13286,-8.13288 0,-10.04695 -6.93369,-16.98064 -6.93369,-16.98064 l -173.41937,0 c -0.008,0 -10.577361,13.66753 8.60947,25.11352 z m 159.67496,58.475225 c -0.48428,1.506658 -15.94289,3.436102 -17.53411,3.782019 -12.92959,2.798078 -25.85917,5.596156 -38.78875,8.386548 -11.8534,2.55978 -23.59918,4.727523 -35.36802,7.049006 -7.97144,1.560466 -20.23995,7.325738 -26.02828,-1.598903 -2.93645,-4.535347 -3.24393,-12.452986 3.77433,-16.588608 0,0 102.09912,-22.707484 116.2125,-25.321073 l 2.6136,8.870831 c 0.008,0.0077 -4.88127,15.412493 -4.88127,15.42018 z M 110.97125,94.210302 245.89398,99.975569 c 0,0 6.61853,2.206181 7.04901,-7.840765 0.42279,-10.039261 -4.99657,-17.203571 -4.99657,-17.203571 L 104.93693,68.820045 c 0.008,0 -9.285926,13.275498 6.03432,25.390257 z m 24.96747,79.645308 c 0,0 -15.31256,3.82814 -18.17982,-8.60948 -2.87495,-12.4376 8.60948,-12.4376 8.60948,-12.4376 l 150.21222,-6.70309 11.96102,11.9687 -11.96102,11.96102 -140.64188,3.82045 z m 63.14894,66.97708 c 0,0 -11.48441,4.78133 -11.48441,-11.48441 0,-16.25808 6.2188,-10.04696 6.2188,-10.04696 l 90.87606,-10.5466 6.71846,6.71846 -9.57035,9.56267 -82.75856,15.79684 z M 187.96454,2.2580612 c -3.9742,-7.4026092 1.52971,-15.8045322 13.26781,-15.2126302 24.16033,1.206863 42.46315,23.337819 65.63953,28.818671 6.00358,1.422101 -10.63884,12.491422 -12.29155,12.906522 -9.32436,2.321483 -14.6361,-0.707206 -23.03803,-4.650652 C 219.10469,18.262455 205.35259,15.45669 193.62988,8.0463941 190.9471,6.3398733 189.07915,4.3335591 187.96454,2.2580612 z m -52.55622,340.7121888 119.95609,5.76526 c 0,0 5.89595,2.1985 6.27261,-7.84076 0.37666,-10.04695 -4.4431,-17.20357 -4.4431,-17.20357 l -127.15114,-6.11119 c 0.008,0 -8.25588,13.27549 5.36554,25.39026 z m -17.21126,64.33274 158.99083,0 c 0,0 7.90225,1.91407 7.90225,-8.14056 0,-10.04695 -6.74151,-16.98065 -6.74151,-16.98065 l -168.52274,0 c 0,0.008 -10.269874,13.66754 8.37117,25.12121 z"
       inkscape:connector-curvature="0" /><path
       id="path149"
       style="fill:#ff0000;stroke:#000000;stroke-width:3.32485747"
       d="m 120.64299,-165.40542 c -9.48095,18.60138 -15.66439,40.36382 -10.21752,61.15201 9.33206,35.62169 51.0265,93.136041 51.0265,93.136041 0,0 -57.40673,-48.482092 -65.063013,-110.993011 l 0,-43.30211 m 332.197733,-0.0145 c 2.22131,5.10595 1.67745,10.51932 -3.69255,15.88932 -10.84639,10.83871 -35.09898,22.23857 -66.97708,37.63569 C 326.03895,-96.4972 176.1342,-25.791908 145.51676,4.8255282 114.89932,35.442965 102.14655,49.487167 90.662122,92.849697 c 0,0 1.7219,25.959093 0,49.758133 0,0 8.824715,61.54236 61.134938,89.60001 -0.008,-0.008 -52.2103,-46.24516 -44.5617,-88.33164 0,0 -3.19012,-23.59918 45.29197,-72.081275 53.5709,-53.570905 207.90339,-122.538929 228.98891,-129.49569 106.51916,-35.068226 50.38848,-49.104745 65.06301,-91.836935 0,0 2.96174,-6.15308 -6.12033,-15.85903 m 1.84919,592.48406 c -0.13437,-10.43368 -0.2054,-20.20059 -0.20271,-31.44556 0.008,-19.10996 3.06713,-34.27646 -4.89664,-49.59671 -1.68346,-3.22856 -3.84351,-6.47248 -6.63391,-9.74716 -11.00013,-12.96033 -66.28524,-48.02086 -80.22183,-47.45971 52.21031,32.99272 74.34126,59.19781 76.13233,73.16514 1.74497,13.5138 -10.20837,25.70542 -14.67453,37.98929 -2.88264,7.92533 -1.46569,18.82777 -1.75011,27.07595 m -305.69453,-0.008 c 0.14843,-4.43619 -3.21126,-5.52159 4.76787,-26.86847 2.62897,-7.03363 5.86521,-13.75979 9.83171,-20.07083 6.09581,-9.68565 14.26713,-18.495 22.33851,-26.54331 27.48113,-27.41964 61.93439,-47.19836 97.97119,-61.08114 105.88113,-40.82581 159.45973,-77.82348 159.45973,-77.82348 0,0 38.27371,-24.2372 48.48208,-48.48209 0,0 -7.65627,-38.26603 0,-59.95114 0,0 -12.16088,-19.432807 -57.01469,-44.077422 0,0 35.32958,22.392315 35.32958,44.077422 0,21.68511 -36.35964,56.77639 -47.83637,56.77639 0,0 -198.37148,97.57147 -198.37148,97.57915 -12.96033,6.38023 -21.46218,17.93385 -32.20865,27.53494 -10.12381,9.04763 -20.51667,17.94153 -27.46575,29.80261 -8.75553,14.94359 -17.79548,30.0486 -23.437747,46.52191 -5.096508,14.89745 -8.397083,47.41989 -5.770966,62.58102"
       inkscape:connector-curvature="0" /></g></svg>

<?xml version="1.0" encoding="UTF-8" standalone="no"?>
<!-- Created with Inkscape (http://www.inkscape.org/) -->
<svg xmlns:svg="http://www.w3.org/2000/svg" xmlns="http://www.w3.org/2000/svg" version="1.0" width="70" height="77.580002" viewBox="0 0 538.092 261.675" id="Layer_1" xml:space="preserve"><defs id="defs859"/><path d="M 132.46534,427.10202 C 131.68895,403.2261 133.67105,384.44177 134.90866,360.63504 C 135.1854,355.46936 127.75973,352.18699 126.78347,349.11218 C 120.21106,328.31877 104.79857,355.66153 102.53858,363.00264 C 98.856499,374.93291 96.688759,388.43133 96.788682,400.95351 C 96.91168,415.85096 88.140706,412.41095 93.075769,426.97017" style="fill:#bf0000;stroke:#000000;stroke-width:3.32485747" id="path141"/><path d="M 99.980567,-165.39319 C 92.489863,-133.91412 94.64416,-80.4915 156.87819,-15.276052 C 218.45129,49.233495 376.0277,86.846127 413.30211,143.23817 C 431.23594,170.35801 434.24157,136.69651 434.89497,124.94304 C 435.53299,113.45094 440.83705,89.651894 396.19077,65.414691 C 344.03429,37.103364 204.82988,-40.458759 204.82988,-40.458759 C 204.82988,-40.458759 126.07611,-86.905479 114.08734,-165.42233 M 408.21329,390.71438 C 426.14713,417.83422 429.15275,384.17272 429.80616,372.41157 C 430.44417,360.91945 435.74823,337.13579 391.10197,312.89858 C 338.94547,284.58726 199.74106,207.01745 199.74106,207.01745 C 199.74106,207.01745 100.24016,148.34236 107.88875,51.378176 C 107.88875,51.378176 51.020115,126.60344 151.78938,232.20016 C 213.36248,296.71739 370.93889,334.31466 408.21329,390.71438 z " style="fill:#8f0000;stroke:#000000;stroke-width:3.32485747" id="path133"/><path d="M 244.47957,99.721905 C 244.47957,99.721905 383.64554,105.65629 384.04527,105.67166 C 391.11734,105.97145 404.70031,102.38161 404.82331,93.487721 C 405.03855,77.029792 371.86902,80.196848 361.57608,79.758687 C 343.25021,78.943862 324.92433,78.129037 306.59846,77.329586 C 301.4174,77.106662 238.01478,77.813868 236.95397,74.254774 L 244.47957,99.721905 z M 272.76015,-124.66247 L 412.44884,-124.66247 L 423.93326,-124.66247 C 423.93326,-124.66247 427.7614,-119.87346 432.06614,-132.79535 C 436.37088,-145.71725 433.50362,-149.54539 433.50362,-149.54539 L 264.15837,-149.77599 L 272.76015,-124.66247 z M 260.32254,-76.818406 L 273.72104,-90.209211 L 378.00327,-109.34991 C 378.00327,-109.34991 402.87849,-96.9123 393.31582,-87.341948 C 383.75317,-77.771598 379.44074,-82.076334 379.44074,-82.076334 L 273.61341,-66.179558 L 260.32254,-76.818406 z M 265.12693,146.62047 L 416.16936,146.10544 L 426.26243,156.1985 L 415.78501,166.67592 L 267.96345,170.02747 C 267.96345,170.02747 257.43991,172.04916 257.43991,159.50393 C 257.43991,146.9587 265.12693,146.62047 265.12693,146.62047 z M 262.82082,211.24531 L 353.22028,194.03406 L 347.38583,212.12933 L 328.25282,223.60606 L 266.92569,227.89542 C 266.92569,227.88773 255.61807,215.39631 262.82082,211.24531 z M 266.32611,17.693615 C 277.2955,22.551817 334.11801,30.838435 320.35823,51.093756 C 310.84939,65.099523 280.19351,44.436789 269.62385,39.855319 C 263.62027,37.257104 256.57896,35.327659 251.09042,31.929993 C 259.23867,30.392587 261.36797,19.523128 257.48602,13.119833 C 260.33791,14.841728 263.29742,16.348385 266.32611,17.693615 z M 254.11911,348.48185 C 254.11911,348.48185 377.84953,354.40854 378.20313,354.43161 C 384.49112,354.7314 396.56745,351.13387 396.67506,342.24767 C 396.86724,325.78973 367.3721,328.95679 358.22454,328.51094 C 341.92804,327.70381 325.63923,326.88899 309.34273,326.08953 C 304.73051,325.85892 248.36153,326.57381 247.42371,323.01472 L 254.11911,348.48185 z M 272.53723,407.30299 L 408.28247,407.30299 L 419.44404,407.30299 C 419.44404,407.30299 423.15687,412.09201 427.3463,399.16243 C 431.52804,386.25591 428.73766,382.42008 428.73766,382.42008 L 264.17374,382.18178 L 272.53723,407.30299 z " style="fill:#7dff00;stroke:#000000;stroke-width:3.32485747" id="path139"/><path d="M 113.93845,-124.66247 L 277.54918,-124.66247 C 277.54918,-124.66247 285.68204,-122.7484 285.68204,-132.79535 C 285.68204,-142.8423 278.74835,-149.77599 278.74835,-149.77599 L 105.32898,-149.77599 C 105.32129,-149.77599 94.751619,-136.10846 113.93845,-124.66247 z M 273.61341,-66.187245 C 273.12913,-64.680587 257.67052,-62.751143 256.0793,-62.405226 C 243.14971,-59.607148 230.22013,-56.80907 217.29055,-54.018678 C 205.43715,-51.458898 193.69137,-49.291155 181.92253,-46.969672 C 173.95109,-45.409206 161.68258,-39.643934 155.89425,-48.568575 C 152.9578,-53.103922 152.65032,-61.021561 159.66858,-65.157183 C 159.66858,-65.157183 261.7677,-87.864667 275.88108,-90.478256 L 278.49468,-81.607425 C 278.50236,-81.599738 273.61341,-66.194932 273.61341,-66.187245 z M 110.97125,94.210302 L 245.89398,99.975569 C 245.89398,99.975569 252.51251,102.18175 252.94299,92.134804 C 253.36578,82.095543 247.94642,74.931233 247.94642,74.931233 L 104.93693,68.820045 C 104.94462,68.820045 95.651004,82.095543 110.97125,94.210302 z M 135.93872,173.85561 C 135.93872,173.85561 120.62616,177.68375 117.7589,165.24613 C 114.88395,152.80853 126.36838,152.80853 126.36838,152.80853 L 276.5806,146.10544 L 288.54162,158.07414 L 276.5806,170.03516 L 135.93872,173.85561 z M 199.08766,240.83269 C 199.08766,240.83269 187.60325,245.61402 187.60325,229.34828 C 187.60325,213.0902 193.82205,219.30132 193.82205,219.30132 L 284.69811,208.75472 L 291.41657,215.47318 L 281.84622,225.03585 L 199.08766,240.83269 z M 187.96454,2.2580612 C 183.99034,-5.144548 189.49425,-13.546471 201.23235,-12.954569 C 225.39268,-11.747706 243.6955,10.38325 266.87188,15.864102 C 272.87546,17.286203 256.23304,28.355524 254.58033,28.770624 C 245.25597,31.092107 239.94423,28.063418 231.5423,24.119972 C 219.10469,18.262455 205.35259,15.45669 193.62988,8.0463941 C 190.9471,6.3398733 189.07915,4.3335591 187.96454,2.2580612 z M 135.40832,342.97025 L 255.36441,348.73551 C 255.36441,348.73551 261.26036,350.93401 261.63702,340.89475 C 262.01368,330.8478 257.19392,323.69118 257.19392,323.69118 L 130.04278,317.57999 C 130.05046,317.57999 121.7869,330.85548 135.40832,342.97025 z M 118.19706,407.30299 L 277.18789,407.30299 C 277.18789,407.30299 285.09014,409.21706 285.09014,399.16243 C 285.09014,389.11548 278.34863,382.18178 278.34863,382.18178 L 109.82589,382.18178 C 109.82589,382.18947 99.556016,395.84932 118.19706,407.30299 z " style="fill:#ffbf00;stroke:#000000;stroke-width:3.32485747" id="path135"/><path d="M 120.64299,-165.40542 C 111.16204,-146.80404 104.9786,-125.0416 110.42547,-104.25341 C 119.75753,-68.63172 161.45197,-11.117369 161.45197,-11.117369 C 161.45197,-11.117369 104.04524,-59.599461 96.388957,-122.11038 L 96.388957,-165.41249 M 428.58669,-165.42702 C 430.808,-160.32107 430.26414,-154.9077 424.89414,-149.5377 C 414.04775,-138.69899 389.79516,-127.29913 357.91706,-111.90201 C 326.03895,-96.4972 176.1342,-25.791908 145.51676,4.8255282 C 114.89932,35.442965 102.14655,49.487167 90.662122,92.849697 C 90.662122,92.849697 92.384022,118.80879 90.662122,142.60783 C 90.662122,142.60783 99.486837,204.15019 151.79706,232.20784 C 151.78938,232.20016 99.58676,185.96268 107.23536,143.8762 C 107.23536,143.8762 104.04524,120.27702 152.52733,71.794925 C 206.09823,18.22402 360.43072,-50.744004 381.51624,-57.700765 C 488.0354,-92.768991 431.90472,-106.80551 446.57925,-149.5377 C 446.57925,-149.5377 449.54099,-155.69078 440.45892,-165.39673 M 442.30811,427.08733 C 442.17374,416.65365 442.10271,406.88674 442.1054,395.64177 C 442.11308,376.53181 445.17253,361.36531 437.20876,346.04506 C 435.5253,342.8165 433.36525,339.57258 430.57485,336.2979 C 419.57472,323.33757 364.28961,288.27704 350.35302,288.83819 C 402.56333,321.83091 424.69428,348.036 426.48535,362.00333 C 428.23032,375.51713 416.27698,387.70875 411.81082,399.99262 C 408.92818,407.91795 410.34513,418.82039 410.06071,427.06857 M 104.36618,427.06096 C 104.51461,422.62477 101.15492,421.53937 109.13405,400.19249 C 111.76302,393.15886 114.99926,386.4327 118.96576,380.12166 C 125.06157,370.43601 133.23289,361.62666 141.30427,353.57835 C 168.7854,326.15871 203.23866,306.37999 239.27546,292.49721 C 345.15659,251.6714 398.73519,214.67373 398.73519,214.67373 C 398.73519,214.67373 437.0089,190.43653 447.21727,166.19164 C 447.21727,166.19164 439.561,127.92561 447.21727,106.2405 C 447.21727,106.2405 435.05639,86.807693 390.20258,62.163078 C 390.20258,62.163078 425.53216,84.555393 425.53216,106.2405 C 425.53216,127.92561 389.17252,163.01689 377.69579,163.01689 C 377.69579,163.01689 179.32431,260.58836 179.32431,260.59604 C 166.36398,266.97627 157.86213,278.52989 147.11566,288.13098 C 136.99185,297.17861 126.59899,306.07251 119.64991,317.93359 C 110.89438,332.87718 101.85443,347.98219 96.212163,364.4555 C 91.115655,379.35295 87.81508,411.87539 90.441197,427.03652" style="fill:#ff0000;stroke:#000000;stroke-width:3.32485747" id="path149"/></svg>
